rospo-newyear-dark/symbolic/apps/sparkleshare-symbolic.svg

<svg height="16" width="16" xmlns="http://www.w3.org/2000/svg"><path d="m2 2s-1 0-1 1v11s0 1 1 1h12s1 0 1-1v-9c0-1-1-1-1-1h-5l-2-2zm8.626 5.93c.736 0 .199 1.63.795 2.06.599.43 1.979-.58 2.209.12.22.7-1.49.69-1.719 1.39-.228.7 1.169 1.7.569 2.13-.597.44-1.118-1.2-1.854-1.2-.737 0-1.258 1.64-1.854 1.2-.596-.43.796-1.43.569-2.13-.228-.7-1.943-.69-1.715-1.39.227-.7 1.609.31 2.205-.12.595-.43.059-2.06.795-2.06z" fill="#d3dae3"/></svg>

<svg xmlns="http://www.w3.org/2000/svg" width="16" height="16" version="1.1">
 <path style="fill:#d3dae3" d="M 2,2 C 2,2 1,2 1,3 V 14 C 1,14 1,15 2,15 H 14 C 14,15 15,15 15,14 V 5 C 15,4 14,4 14,4 H 9 L 7,2 Z M 10.626,7.93 C 11.362,7.93 10.825,9.56 11.421,9.99 12.02,10.42 13.4,9.41 13.63,10.11 13.85,10.81 12.14,10.8 11.911,11.5 11.683,12.2 13.08,13.2 12.48,13.63 11.883,14.07 11.362,12.43 10.626,12.43 9.889,12.43 9.368,14.07 8.772,13.63 8.176,13.2 9.568,12.2 9.341,11.5 9.113,10.8 7.398,10.81 7.626,10.11 7.853,9.41 9.235,10.42 9.831,9.99 10.426,9.56 9.89,7.93 10.626,7.93 Z"/>
</svg>
